!!!!SEGMENT: pl-wtm--r-1227--022_lodwigowski-edward-stefan--ach-juz-sie-zbliza-ta-ostatnia-chwila.krn
!!!cenid: 18xx:1962
!!!COM: Łodwigowski, Edward Stefan
!!!COM-rismid: pe30111147
!!!CDT: 1815/08/14-1895/11/12
!!!CNT: Polish
!!!OTL: Ach już się zbliża ta ostatnia chwila
!!!PDT:
!!!AGN:
!!!SMS-siglum: PL-Wtm
!!!SMS-shelfmark: R 1227
!!!SMS-shelfwork: 022 W
!!!SMS-variant:
!!!SMS-altvar:
!!!NIFC-rismid: 1001084160
!!!URL-scan: http://repozytorium.nifc.pl/skany/pl-wtm-nut--r1226-1227
!!!ONB-nifc: UWAGA: No. 93
!!!OMD: No 93. Andante
**kern	**fing	**kern	**fing	**dynam
*part2	*	*part1	*	*part1
*staff2	*	*staff1	*	*
*Iforte	*	*Iforte	*	*
*I"Fortepian	*	*I"Fortepian	*	*
*clefF4	*	*clefG2	*	*
*k[b-e-a-]	*	*k[b-e-a-]	*	*
*E-:	*	*E-:	*	*
*M4/4	*	*M4/4	*	*
*met(c)	*	*met(c)	*	*
*all\right	*	*all\right	*	*
*>[A,B,B]	*>[A,B,B]	*>[A,B,B]	*>[A,B,B]	*>[A,B,B]
*>A	*>A	*>A	*>A	*>A
!	!	!LO:TX:a:i:t=Ach! już się zbliża ta ostatnia chwila. P.L.P.	!	!
8r	.	(8b-\L	2	p
4r	.	8cc\	1	.
.	.	8dd\J)	.	.
=1	=1	=1	=1	=1
*^	*	*	*	*
*	*	*^	*	*	*
8G/L	4E-\	4	5	(4.ee-\	.	.
(<8B-/	.	.	.	.	.	.
8e-/	4r	.	.	.	.	.
8B-/J)	.	.	.	8dd\	.	.
8G/L	4E-\	.	.	8cc\L	.	.
(<8B-/	.	.	.	8b-\	3	.
8e-/	4r	.	.	8a-\	.	.
8B-/J)	.	.	.	8g\J)	.	.
=2	=2	=2	=2	=2	=2	=2
8A-/L	4F\	3	5	(8b-/L	.	.
(<8B-/	.	.	.	8a-/J)	.	.
8d/	4r	.	.	4a-/	.	.
8B-/J)	.	.	.	.	.	.
8A-/L	4F\	.	.	8r	.	.
(<8B-/	.	.	.	(8a-/L	2	.
8d/	4r	.	.	8g/	.	.
8B-/J)	.	.	.	8a-/J)	.	.
=3	=3	=3	=3	=3	=3	=3
8A-/L	4D\	3	5	(4.ff\	5	.
(<8B-/	.	.	.	.	.	.
8d/	4r	.	.	.	.	.
8B-/J)	.	.	.	8ee-\	.	.
8A-/L	4F\	.	5	8dd\L	.	.
(<8B-/	.	.	.	8cc\	1	.
8d/	4r	.	.	8b-\	3	.
8B-/J)	.	.	.	8a-\J)	.	.
=	=	=	=	=	=	=
8G/L	4E-\	4	5	(8a-/L	3	.
(<8B-/	.	.	.	8g/J)	2	.
8e-/	4r	.	.	4g/	1	.
8B-/J)	.	.	.	.	.	.
8G/	8E-\	.	.	8r	.	.
*v	*v	*	*	*	*	*
!!LO:LB:g=original
=4!|:	=4!|:	=4!|:	=4!|:	=4!|:	=4!|:
*>B	*>B	*>B	*>B	*>B	*>B
8r	.	.	8g'/L	3	.
4r	.	.	8g'/	2	.
.	.	.	8g/J	1	.
=5	=5	=5	=5	=5	=5
*^	*	*	*	*	*
(8E-/L	2C\	3	5	4.cc\	3	.
8G/	.	.	.	.	.	.
8E-/	.	.	.	.	.	.
!	!	!	!	!	!	!LO:HP:t=cres
8G/J)	.	.	.	(8cc\	2	<
8F/L	4D\	.	4	8bn\L	1	.
8G/	.	.	.	8dd\J	.	.
8F/	4BBn\	.	5	8.gg^\L	.	.
8G/J	.	.	.	.	.	.
.	.	.	.	16ff\Jk)	.	.
=6	=6	=6	=6	=6	=6	=6
*	*2\right	*	*	*	*	*
8E-/L	2C\	2	4	(8ff\L	3	.
8G/	.	.	.	8ee-\J)	2	.
8E-/	.	.	.	4ee-\	3	.
8C/J	.	3	.	.	.	.
!	!	!	!	!	!	!LO:DY:b=2
4E-/	2F#X^^> 2AAn\	1	2	8r	.	sf
.	.	.	.	(8cc\L	2	.
8D/L	.	.	2	8dd\	.	>
8C/J	.	.	1	8ee-\J)	.	.
=7	=7	=7	=7	=7	=7	=7
!LO:N:vis=2	!	!	!	!	!	!
8BB-/L	2BB-\	.	4	(8ee-\L	4	]
(<8E-/	.	.	.	8g\J	.	.
8G/	.	.	.	8.dd^<\L	5	.
8E-/J)	.	.	.	.	.	.
.	.	.	.	16cc\Jk	.	.
!LO:N:vis=2	!	!	!	!	!	!
8BB-/L	2BB-\	.	5	8b-\L)	.	.
(<8D/	.	.	.	8b-\J	4	.
8F/	.	.	.	(8.a-/L	.	.
8A-/J)	.	.	.	.	.	.
.	.	.	.	16d/Jk)	.	.
=8	=8	=8	=8	=8	=8	=8
8A-/L	[2E-\	2	5	(2f^/	.	.
8B-/	.	.	.	.	.	.
8A-/	.	.	.	.	.	.
8B-/J	.	.	.	.	.	.
8G/	8E-\]	.	.	8e-/)	.	.
*	*	*v	*v	*	*	*
*v	*v	*	*	*	*
=:|!	=:|!	=:|!	=:|!	=:|!
*-	*-	*-	*-	*-
!!!system-decoration: {s1,s2}
!!!RDF**kern: > = above
!!!RDF**kern: < = below
!!!AIN: 2 forte
!!!ENC: Marta Lawrence
!!!ENC: 2021-05-02
!!!ENC: Marcin Jachim
!!!END: 2021-04-17
